lib/functional/office&editing/file-zip.svg

<svg xmlns="http://www.w3.org/2000/svg" fill="none" stroke="currentColor" aria-hidden="true" viewBox="0 0 32 32"><g id="Icon-FileZip"><g clip-path="url(#clip0_12_1143)"><g id="size=md (32px)"><g id="FileZip"><path id="Vector" stroke-linecap="round" stroke-linejoin="round" stroke-width="2" d="M6 16V5C6 4.73478 6.10536 4.48043 6.29289 4.29289C6.48043 4.10536 6.73478 4 7 4H19L26 11V16"/><path id="Vector_2" stroke-linecap="round" stroke-linejoin="round" stroke-width="2" d="M19 4V11H26"/><path id="Vector_3" stroke-linecap="round" stroke-linejoin="round" stroke-width="2" d="M21 25H23C23.5304 25 24.0391 24.7893 24.4142 24.4142C24.7893 24.0391 25 23.5304 25 23C25 22.4696 24.7893 21.9609 24.4142 21.5858C24.0391 21.2107 23.5304 21 23 21H21V27"/><path id="Vector_4" stroke-linecap="round" stroke-linejoin="round" stroke-width="2" d="M16 21V27"/><path id="Vector_5" stroke-linecap="round" stroke-linejoin="round" stroke-width="2" d="M7 21H11L7 27H11"/></g></g></g></g><defs><clipPath id="clip0_12_1143"><rect width="32" height="32" fill="white" rx="5"/></clipPath></defs></svg>

<svg xmlns="http://www.w3.org/2000/svg" fill="none" stroke="currentColor" aria-hidden="true" viewBox="0 0 32 32"><g stroke="#101828" stroke-linecap="round" stroke-linejoin="round" stroke-width="2" clip-path="url(#a)"><path d="M6 16V5a1 1 0 0 1 1-1h12l7 7v5"/><path d="M19 4v7h7m-5 14h2a2 2 0 0 0 0-4h-2v6m-5-6v6m-9-6h4l-4 6h4"/></g><defs><clipPath id="a"><rect width="32" height="32" fill="#fff" rx="5"/></clipPath></defs></svg>
